src/lib/packages/icons/src/assets/filled/volume-times.svg

<svg width="24" height="24" viewBox="0 0 24 24" fill="none" xmlns="http://www.w3.org/2000/svg">
<path d="M3.5 6.99989H5.26697C5.74097 6.99989 6.19906 6.83177 6.56006 6.52577L10.251 3.39882C11.336 2.47982 13.001 3.25099 13.001 4.67299V19.3268C13.001 20.7488 11.336 21.521 10.251 20.601L6.56006 17.474C6.19906 17.168 5.74097 16.9999 5.26697 16.9999H3.5C2.672 16.9999 2 16.3279 2 15.4999V8.50087C2 7.67187 2.672 6.99989 3.5 6.99989ZM21.061 11.9999L22.531 10.5299C22.824 10.2369 22.824 9.76189 22.531 9.46889C22.238 9.17589 21.763 9.17589 21.47 9.46889L20 10.9389L18.53 9.46889C18.237 9.17589 17.762 9.17589 17.469 9.46889C17.176 9.76189 17.176 10.2369 17.469 10.5299L18.939 11.9999L17.469 13.4699C17.176 13.7629 17.176 14.2379 17.469 14.5309C17.615 14.6769 17.807 14.7509 17.999 14.7509C18.191 14.7509 18.3831 14.6779 18.5291 14.5309L19.999 13.0609L21.469 14.5309C21.615 14.6769 21.807 14.7509 21.999 14.7509C22.191 14.7509 22.3831 14.6779 22.5291 14.5309C22.8221 14.2379 22.8221 13.7629 22.5291 13.4699L21.061 11.9999Z" fill="currentColor"/>
</svg>

<svg xmlns="http://www.w3.org/2000/svg" width="24" height="24" fill="none"><path fill="currentColor" d="M3.5 7h1.767a2 2 0 0 0 1.293-.474l3.691-3.127c1.085-.92 2.75-.148 2.75 1.274v14.654c0 1.422-1.665 2.194-2.75 1.274l-3.69-3.127A2 2 0 0 0 5.266 17H3.5A1.5 1.5 0 0 1 2 15.5v-7A1.5 1.5 0 0 1 3.5 7Zm17.561 5 1.47-1.47a.75.75 0 1 0-1.061-1.061L20 10.939l-1.47-1.47a.75.75 0 1 0-1.061 1.06l1.47 1.47-1.47 1.47a.75.75 0 0 0 1.06 1.062L20 13.06l1.47 1.47a.748.748 0 0 0 1.06 0 .75.75 0 0 0 0-1.061L21.061 12Z"/></svg>
